svg/design/scissors_fill.svg

<?xml version="1.0" encoding="UTF-8"?>
<svg width="24px" height="24px" viewBox="0 0 24 24" version="1.1" xmlns="http://www.w3.org/2000/svg" xmlns:xlink="http://www.w3.org/1999/xlink">
    <title>scissors_fill</title>
    <g id="页面-1" stroke="none" stroke-width="1" fill="none" fill-rule="evenodd">
        <g id="Design" transform="translate(-576.000000, -48.000000)">
            <g id="scissors_fill" transform="translate(576.000000, 48.000000)">
                 <path d="M24,0 L24,24 L0,24 L0,0 L24,0 Z M12.5934901,23.257841 L12.5819402,23.2595131 L12.5108777,23.2950439 L12.4918791,23.2987469 L12.4918791,23.2987469 L12.4767152,23.2950439 L12.4056548,23.2595131 C12.3958229,23.2563662 12.3870493,23.2590235 12.3821421,23.2649074 L12.3780323,23.275831 L12.360941,23.7031097 L12.3658947,23.7234994 L12.3769048,23.7357139 L12.4804777,23.8096931 L12.4953491,23.8136134 L12.4953491,23.8136134 L12.5071152,23.8096931 L12.6106902,23.7357139 L12.6232938,23.7196733 L12.6232938,23.7196733 L12.6266527,23.7031097 L12.609561,23.275831 C12.6075724,23.2657013 12.6010112,23.2592993 12.5934901,23.257841 L12.5934901,23.257841 Z M12.8583906,23.1452862 L12.8445485,23.1473072 L12.6598443,23.2396597 L12.6498822,23.2499052 L12.6498822,23.2499052 L12.6471943,23.2611114 L12.6650943,23.6906389 L12.6699349,23.7034178 L12.6699349,23.7034178 L12.678386,23.7104931 L12.8793402,23.8032389 C12.8914285,23.8068999 12.9022333,23.8029875 12.9078286,23.7952264 L12.9118235,23.7811639 L12.8776777,23.1665331 C12.8752882,23.1545897 12.8674102,23.1470016 12.8583906,23.1452862 L12.8583906,23.1452862 Z M12.1430473,23.1473072 C12.1332178,23.1423925 12.1221763,23.1452606 12.1156365,23.1525954 L12.1099173,23.1665331 L12.0757714,23.7811639 C12.0751323,23.7926639 12.0828099,23.8018602 12.0926481,23.8045676 L12.108256,23.8032389 L12.3092106,23.7104931 L12.3186497,23.7024347 L12.3186497,23.7024347 L12.3225043,23.6906389 L12.340401,23.2611114 L12.337245,23.2485176 L12.337245,23.2485176 L12.3277531,23.2396597 L12.1430473,23.1473072 Z" id="MingCute" fill-rule="nonzero"></path>
                <path d="M18.1719,4.94549 C18.9638,3.81448 18.689,2.25561 17.558,1.46367 L17.1484,1.17688 L12.0017,8.52709 L6.85504,1.17688 L6.44546,1.46367 C5.31445,2.25561 5.03958,3.81448 5.83152,4.94549 L10.1705,11.1423 L8.37076,13.7126 C7.93857,13.5746 7.47799,13.5 7,13.5 C4.51472,13.5 2.5,15.5147 2.5,18 C2.5,20.4853 4.51472,22.5 7,22.5 C9.48528,22.5 11.5,20.4853 11.5,18 C11.5,17.0873 11.2283,16.2381 10.7614,15.5288 L12.0017,13.7574 L13.2403,15.5263 C12.7724,16.2361 12.5,17.0863 12.5,18 C12.5,20.4853 14.5147,22.5 17,22.5 C19.4853,22.5 21.5,20.4853 21.5,18 C21.5,15.5147 19.4853,13.5 17,13.5 C16.523,13.5 16.0634,13.5742 15.632,13.7117 L13.8329,11.1423 L18.1719,4.94549 Z M5.5,18 C5.5,17.1716 6.17157,16.5 7,16.5 C7.82843,16.5 8.5,17.1716 8.5,18 C8.5,18.8285 7.82843,19.5 7,19.5 C6.17157,19.5 5.5,18.8285 5.5,18 Z M15.5,18 C15.5,17.1716 16.1716,16.5 17,16.5 C17.8284,16.5 18.5,17.1716 18.5,18 C18.5,18.8285 17.8284,19.5 17,19.5 C16.1716,19.5 15.5,18.8285 15.5,18 Z" id="形状" fill="#09244B"></path>
            </g>
        </g>
    </g>
</svg>

<svg xmlns="http://www.w3.org/2000/svg" width="24" height="24"><g fill="none" fill-rule="evenodd"><path d="M24 0v24H0V0h24ZM12.593 23.258l-.011.002-.071.035-.02.004-.014-.004-.071-.035c-.01-.004-.019-.001-.024.005l-.004.01-.017.428.005.02.01.013.104.074.015.004.012-.004.104-.074.012-.016.004-.017-.017-.427c-.002-.01-.009-.017-.017-.018Zm.265-.113-.013.002-.185.093-.01.01-.003.011.018.43.005.012.008.007.201.093c.012.004.023 0 .029-.008l.004-.014-.034-.614c-.003-.012-.01-.02-.02-.022Zm-.715.002a.023.023 0 0 0-.027.006l-.006.014-.034.614c0 .012.007.02.017.024l.015-.002.201-.093.01-.008.004-.011.017-.43-.003-.012-.01-.01-.184-.092Z"/><path fill="#09244B" d="M18.172 4.945a2.5 2.5 0 0 0-.614-3.481l-.41-.287-5.146 7.35-5.147-7.35-.41.287a2.5 2.5 0 0 0-.613 3.481l4.339 6.197-1.8 2.57a4.5 4.5 0 1 0 2.39 1.816l1.24-1.77 1.24 1.768a4.5 4.5 0 1 0 2.392-1.815l-1.8-2.569 4.339-6.197ZM5.5 18a1.5 1.5 0 1 1 3 0 1.5 1.5 0 0 1-3 0Zm10 0a1.5 1.5 0 1 1 3 0 1.5 1.5 0 0 1-3 0Z"/></g></svg>
